assets/img/icons_pokemon/poison.svg

<svg width="256" height="256" viewBox="0 0 256 256" fill="none" xmlns="http://www.w3.org/2000/svg">
<g clip-path="url(#clip0_57_764)">
<path d="M128 256C198.692 256 256 198.692 256 128C256 57.3075 198.692 0 128 0C57.3075 0 0 57.3075 0 128C0 198.692 57.3075 256 128 256Z" fill="#9354CB"/>
<path d="M159.37 140C168.648 140 176.17 132.478 176.17 123.2C176.17 113.922 168.648 106.4 159.37 106.4C150.091 106.4 142.57 113.922 142.57 123.2C142.57 132.478 150.091 140 159.37 140Z" fill="white"/>
<path d="M102.45 114.8C118.024 114.8 130.65 102.174 130.65 86.5999C130.65 71.0255 118.024 58.3999 102.45 58.3999C86.8756 58.3999 74.25 71.0255 74.25 86.5999C74.25 102.174 86.8756 114.8 102.45 114.8Z" fill="white"/>
<path d="M197.45 191.55C199.81 190.05 200.57 188.47 200.73 186.64C200.78 186.26 200.81 185.87 200.81 185.46C200.81 185.19 200.78 184.94 200.75 184.7C200.59 182 199.49 180.16 192.52 177.89C191.31 177.5 189.98 177.11 188.55 176.72C180.65 174.35 172.99 172.94 164.31 172.19C160.88 171.75 157.32 171.35 153.68 171.01C151.97 170.49 151.37 169.73 150.96 168.57C150.41 165.62 149.31 162.87 147.77 160.42C143.98 153.93 137.93 150.17 129.95 149.6C129.46 149.56 128.97 149.53 128.47 149.52C128.43 149.52 128.39 149.52 128.35 149.52C128.32 149.52 128.3 149.52 128.27 149.52C128.18 149.52 128.09 149.52 128 149.52C127.73 149.52 127.47 149.53 127.2 149.54C117.96 149.71 111.02 154.18 107.21 162.24C106.59 163.46 106.06 164.73 105.66 166.06C104.73 168.53 104.07 170.03 102.03 170.92C97.1098 171.34 92.3798 171.87 87.9298 172.49C83.6498 172.95 79.4198 173.7 75.2298 174.66C69.7298 175.8 65.0598 177.09 61.4998 178.46C60.9698 178.65 60.4598 178.86 59.9598 179.09C55.6998 180.99 55.3298 182.76 55.2998 184.97C55.2798 185.23 55.2498 185.49 55.2598 185.77C55.2598 185.93 55.2898 186.08 55.2998 186.24C55.3598 188.77 56.0198 190.8 61.0098 192.88C61.9498 193.29 62.9398 193.64 63.9498 193.96C65.5998 194.51 67.4298 195.04 69.4298 195.55C77.8898 197.84 86.4498 199.12 95.0498 199.92C105.27 201.05 116.57 201.71 127.92 201.72C127.92 201.72 127.92 201.72 127.93 201.72C127.96 201.72 127.99 201.72 128.02 201.72C138.49 201.72 149.01 201.13 158.67 200.13C168.82 199.29 178.87 197.83 188.75 194.95C189.21 194.82 189.66 194.69 190.1 194.56C190.19 194.53 190.27 194.51 190.36 194.48C192.65 193.77 195.15 192.99 197.12 191.75C197.2 191.7 197.28 191.65 197.37 191.6C197.39 191.58 197.42 191.57 197.44 191.55H197.45Z" fill="white"/>
</g>
<defs>
<clipPath id="clip0_57_764">
<rect width="256" height="256" fill="white"/>
</clipPath>
</defs>
</svg>

<?xml version="1.0" encoding="UTF-8"?>
<svg id="Layer_1" data-name="Layer 1" xmlns="http://www.w3.org/2000/svg" viewBox="0 0 256 256">
  <defs>
    <style>
      .cls-1 {
        fill: #fff;
      }

      .cls-2 {
        fill: #9354cb;
      }
    </style>
  </defs>
  <circle class="cls-2" cx="128" cy="128" r="128"/>
  <circle class="cls-1" cx="159.37" cy="123.2" r="16.8"/>
  <circle class="cls-1" cx="102.45" cy="86.6" r="28.2"/>
  <path class="cls-1" d="M197.45,191.55c2.36-1.5,3.12-3.08,3.28-4.91,.05-.38,.08-.77,.08-1.18,0-.27-.03-.52-.06-.76-.16-2.7-1.26-4.54-8.23-6.81-1.21-.39-2.54-.78-3.97-1.17-7.9-2.37-15.56-3.78-24.24-4.53-3.43-.44-6.99-.84-10.63-1.18-1.71-.52-2.31-1.28-2.72-2.44-.55-2.95-1.65-5.7-3.19-8.15-3.79-6.49-9.84-10.25-17.82-10.82-.49-.04-.98-.07-1.48-.08-.04,0-.08,0-.12,0-.03,0-.05,0-.08,0-.09,0-.18,0-.27,0-.27,0-.53,.01-.8,.02-9.24,.17-16.18,4.64-19.99,12.7-.62,1.22-1.15,2.49-1.55,3.82-.93,2.47-1.59,3.97-3.63,4.86-4.92,.42-9.65,.95-14.1,1.57-4.28,.46-8.51,1.21-12.7,2.17-5.5,1.14-10.17,2.43-13.73,3.8-.53,.19-1.04,.4-1.54,.63-4.26,1.9-4.63,3.67-4.66,5.88-.02,.26-.05,.52-.04,.8,0,.16,.03,.31,.04,.47,.06,2.53,.72,4.56,5.71,6.64,.94,.41,1.93,.76,2.94,1.08,1.65,.55,3.48,1.08,5.48,1.59,8.46,2.29,17.02,3.57,25.62,4.37,10.22,1.13,21.52,1.79,32.87,1.8,0,0,0,0,.01,0,0,0,0,0,0,0,.03,0,.06,0,.09,0,10.47,0,20.99-.59,30.65-1.59,10.15-.84,20.2-2.3,30.08-5.18,.46-.13,.91-.26,1.35-.39,.09-.03,.17-.05,.26-.08,2.29-.71,4.79-1.49,6.76-2.73,.08-.05,.16-.1,.25-.15,.02-.02,.05-.03,.07-.05Z"/>
</svg>
